Papirus-GTK/24x24/apps/audiobook.svg

<svg height="24" viewBox="0 0 48 48.000001" width="24" xmlns="http://www.w3.org/2000/svg"><rect fill="#009688" height="44" rx="2" transform="scale(-1 1)" width="36" x="-42" y="2"/><rect fill="#009688" height="44" rx="2" width="36" x="6" y="2"/><path d="m4 1c-.554 0-1 .446-1 1v .5c0-.554.446-1 1-1h16c .554 0 1 .446 1 1v-.5c0-.554-.446-1-1-1z" fill="#fff" opacity=".2" transform="scale(2)"/><path d="m30 2v22l2-2h2l2 2v-22z" fill="#d8d8d8"/><path d="m8 2c-1.108 0-2 .892-2 2v40c0 1.108.892 2 2 2h4v-44z" opacity=".2"/><path d="m6 43v1c0 1.108.892 2 2 2h32c1.108 0 2-.892 2-2v-1c0 1.108-.892 2-2 2h-32c-1.108 0-2-.892-2-2z" opacity=".3"/><circle cx="34" cy="34" fill="#f34235" r="12"/><path d="m45.98 33.406a12 12 0 0 1 -11.98 11.594 12 12 0 0 1 -11.98-11.406 12 12 0 0 0 -.02.406 12 12 0 0 0  12 12 12 12 0 0 0  12-12 12 12 0 0 0 -.02-.594z" opacity=".3"/><path d="m36.699 34.9999c0-1.3-.72-2.42-1.79-3v6c1.06-.58 1.79-1.7 1.79-3zm-10.699-2.909v5.8182h2.8182l4.0907 4.0909v-14l-4.0907 4.0909zm8.909-4.091v1.5c2.32.74 4 2.93 4 5.5 0 2.57-1.68 4.76-4 5.5v1.5c3.15-.78 5.5-3.6 5.5-7 0-3.4-2.35-6.22-5.5-7z" fill="#fff"/></svg>

<?xml version="1.0" encoding="UTF-8" standalone="no"?>
<!-- Created with Inkscape (http://www.inkscape.org/) -->

<svg
   xmlns:dc="http://purl.org/dc/elements/1.1/"
   xmlns:cc="http://creativecommons.org/ns#"
   xmlns:rdf="http://www.w3.org/1999/02/22-rdf-syntax-ns#"
   xmlns:svg="http://www.w3.org/2000/svg"
   xmlns="http://www.w3.org/2000/svg"
   xmlns:sodipodi="http://sodipodi.sourceforge.net/DTD/sodipodi-0.dtd"
   xmlns:inkscape="http://www.inkscape.org/namespaces/inkscape"
   id="svg4211"
   height="24"
   width="24"
   version="1.1"
   viewBox="0 0 48 48.000001"
   inkscape:version="0.91 r13725"
   sodipodi:docname="audiobook.svg">
  <defs
     id="defs17" />
  <sodipodi:namedview
     pagecolor="#ffffff"
     bordercolor="#666666"
     borderopacity="1"
     objecttolerance="10"
     gridtolerance="10"
     guidetolerance="10"
     inkscape:pageopacity="0"
     inkscape:pageshadow="2"
     inkscape:window-width="1600"
     inkscape:window-height="845"
     id="namedview15"
     showgrid="false"
     inkscape:zoom="1"
     inkscape:cx="12"
     inkscape:cy="12"
     inkscape:window-x="0"
     inkscape:window-y="32"
     inkscape:window-maximized="1"
     inkscape:current-layer="svg4211" />
  <metadata
     id="metadata4216">
    <rdf:RDF>
      <cc:Work
         rdf:about="">
        <dc:format>image/svg+xml</dc:format>
        <dc:type
           rdf:resource="http://purl.org/dc/dcmitype/StillImage" />
        <dc:title />
      </cc:Work>
    </rdf:RDF>
  </metadata>
  <g
     id="g4165">
    <rect
       transform="scale(-1,1)"
       ry="2"
       rx="2"
       y="2"
       x="-42"
       height="44"
       width="36"
       id="rect4480"
       style="opacity:1;fill:#009688;fill-opacity:1;stroke:none;stroke-width:8;stroke-linecap:round;stroke-linejoin:miter;stroke-miterlimit:4;stroke-dasharray:none;stroke-opacity:1" />
    <rect
       style="opacity:1;fill:#009688;fill-opacity:1;stroke:none;stroke-width:8;stroke-linecap:round;stroke-linejoin:miter;stroke-miterlimit:4;stroke-dasharray:none;stroke-opacity:1"
       id="rect4482"
       width="36"
       height="44"
       x="6"
       y="2"
       rx="2"
       ry="2" />
    <path
       id="rect4491"
       transform="scale(2,2)"
       d="M 4,1 C 3.446,1 3,1.446 3,2 l 0,0.5 c 0,-0.554 0.446,-1 1,-1 l 16,0 c 0.554,0 1,0.446 1,1 L 21,2 C 21,1.446 20.554,1 20,1 L 4,1 Z"
       style="opacity:0.2;fill:#ffffff;fill-opacity:1;stroke:none;stroke-width:8;stroke-linecap:round;stroke-linejoin:miter;stroke-miterlimit:4;stroke-dasharray:none;stroke-opacity:1"
       inkscape:connector-curvature="0" />
    <path
       sodipodi:nodetypes="ccccccc"
       inkscape:connector-curvature="0"
       id="path4505"
       d="m 30,2 0,22 2,-2 2,0 2,2 0,-22 z"
       style="display:inline;fill:#d8d8d8;fill-opacity:1;stroke:none;enable-background:new" />
    <path
       inkscape:connector-curvature="0"
       id="rect4245"
       d="M 8,2 C 6.892,2 6,2.892 6,4 l 0,40 c 0,1.108 0.892,2 2,2 l 4,0 0,-44 -4,0 z"
       style="opacity:0.2;fill:#000000;fill-opacity:1;stroke:none;stroke-width:8;stroke-linecap:round;stroke-linejoin:miter;stroke-miterlimit:4;stroke-dasharray:none;stroke-opacity:1" />
    <path
       inkscape:connector-curvature="0"
       id="rect4489"
       d="m 6,43 0,1 c 0,1.108 0.892,2 2,2 l 32,0 c 1.108,0 2,-0.892 2,-2 l 0,-1 c 0,1.108 -0.892,2 -2,2 L 8,45 C 6.892,45 6,44.108 6,43 Z"
       style="opacity:0.3;fill:#000000;fill-opacity:1;stroke:none;stroke-width:8;stroke-linecap:round;stroke-linejoin:miter;stroke-miterlimit:4;stroke-dasharray:none;stroke-opacity:1" />
  </g>
  <circle
     id="path4058-7"
     style="fill:#f34235;enable-background:new"
     cx="34"
     cy="34"
     r="12" />
  <path
     id="circle4454"
     d="M 45.98,33.406 A 12,12 0 0 1 34,45 12,12 0 0 1 22.02,33.594 12,12 0 0 0 22,34 12,12 0 0 0 34,46 12,12 0 0 0 46,34 12,12 0 0 0 45.98,33.406 Z"
     style="opacity:0.3;enable-background:new"
     inkscape:connector-curvature="0" />
  <path
     id="path5075"
     d="m 36.699,34.9999 c 0,-1.3 -0.72,-2.42 -1.79,-3 l 0,6 c 1.06,-0.58 1.79,-1.7 1.79,-3 z M 26,32.0909 l 0,5.8182 2.8182,0 4.0907,4.0909 0,-14 -4.0907,4.0909 z m 8.909,-4.091 0,1.5 c 2.32,0.74 4,2.93 4,5.5 0,2.57 -1.68,4.76 -4,5.5 l 0,1.5 c 3.15,-0.78 5.5,-3.6 5.5,-7 0,-3.4 -2.35,-6.22 -5.5,-7 z"
     inkscape:connector-curvature="0"
     style="fill:#ffffff" />
</svg>
